svg/fluentui-system-icons/ic_fluent_flashlight_24_filled.svg

<svg width="24" height="24" viewBox="0 0 24 24" fill="none" xmlns="http://www.w3.org/2000/svg">
<path d="M16.7498 1.25C17.164 1.25 17.4998 1.58579 17.4998 2V3C17.4998 3.41421 17.164 3.75 16.7498 3.75C16.3356 3.75 15.9998 3.41421 15.9998 3V2C15.9998 1.58579 16.3356 1.25 16.7498 1.25ZM20.4694 2.46967C20.7623 2.17678 21.2372 2.17678 21.5301 2.46967C21.823 2.76256 21.823 3.23744 21.5301 3.53033L19.5301 5.53033C19.2372 5.82322 18.7623 5.82322 18.4694 5.53033C18.1765 5.23744 18.1765 4.76256 18.4694 4.46967L20.4694 2.46967ZM8.24977 6.31074V9.18942L14.8104 15.75H17.689L8.24977 6.31074ZM19.0604 15L20.4694 13.591C21.3481 12.7123 21.3481 11.2877 20.4694 10.409L13.5908 3.53033C12.7121 2.65165 11.2875 2.65165 10.4088 3.53033L8.99973 4.93938L19.0604 15ZM12.9997 16.0607L7.93907 11L3.0301 15.909C2.15142 16.7877 2.15142 18.2123 3.0301 19.091L4.90878 20.9697C5.78746 21.8484 7.21208 21.8483 8.09076 20.9697L12.9997 16.0607ZM9.53006 14.4697C9.82296 14.7626 9.82296 15.2375 9.53006 15.5304L8.03006 17.0304C7.73717 17.3233 7.2623 17.3233 6.9694 17.0304C6.67651 16.7375 6.67651 16.2626 6.9694 15.9697L8.4694 14.4697C8.7623 14.1768 9.23717 14.1768 9.53006 14.4697ZM21.9998 8H20.9998C20.5856 8 20.2498 7.66421 20.2498 7.25C20.2498 6.83579 20.5856 6.5 20.9998 6.5H21.9998C22.414 6.5 22.7498 6.83579 22.7498 7.25C22.7498 7.66421 22.414 8 21.9998 8Z" fill="#212121"/>
</svg>

<svg xmlns="http://www.w3.org/2000/svg" width="24" height="24"><path d="M16.75 1.25a.75.75 0 0 1 .75.75v1A.75.75 0 0 1 16 3V2a.75.75 0 0 1 .75-.75Zm3.72 1.22a.75.75 0 0 1 1.06 1.06l-2 2a.75.75 0 0 1-1.06-1.06l2-2ZM8.25 6.31v2.88l6.56 6.56h2.879l-9.44-9.44ZM19.06 15l1.41-1.409a2.25 2.25 0 0 0 0-3.182L13.59 3.53a2.25 2.25 0 0 0-3.181 0l-1.41 1.41L19.06 15ZM13 16.06 7.94 11l-4.91 4.909a2.25 2.25 0 0 0 0 3.182l1.88 1.879a2.25 2.25 0 0 0 3.182 0L13 16.06Zm-3.47-1.59a.75.75 0 0 1 0 1.06l-1.5 1.5a.75.75 0 1 1-1.06-1.06l1.5-1.5a.75.75 0 0 1 1.06 0ZM22 8h-1a.75.75 0 0 1 0-1.5h1A.75.75 0 0 1 22 8Z"/></svg>
